X:1
T: Minns du hur vi lekte
R:Polska
O:Boda, Dalarna
N:Från Spillefolk
D:LP: Bodalåtar i Laggar Anders kök - Sonett SLP 2047 
M:3/4
L:1/16
K:Am
Q:1/4=100
E2|"Dm" F2>G2 A2>G2 "A7"A2>^c2| e2>^c2 "Dm"d4-d2>^c2| d2>e2 f2>g2 a2>f2|"Am"(3f2e2d2 e4-e2:|
|:e2-|"C"e4 c2>e2 g2>e2|"Dm"f4 d2>e2 f3g/2f/2|"Am"e4 c3{/B}c d2>B2| B2<A2 A2c2 E4-|
E4 "Am"c2>e2 g2>e2|"Dm" f4 d2>e2 f3g/2f/2|"Am"e4 c3{/B}c "G"d2>B2| B2A2 "Am"A4-A2:||

